!!!!SEGMENT: pl-kk--kk-i-2--038_anonim--egredimini-et-videte.krn
!!!cenid: 16xx:1658
!!!COM: Anonim
!!!COM-rismid: pe30004985
!!!CDT:
!!!CNT:
!!!OTL: Egredimini et videte
!!!PDT:
!!!AGN: Sacred
!!!SMS-siglum: PL-Kk
!!!SMS-shelfmark: Kk.I.2
!!!SMS-shelfwork: 038 W
!!!NIFC-rismid: 300258056
!!!URL-scan: http://repozytorium.nifc.pl/skany/pl-kk-nut--i-2
!!!ONB-nifc: skany: C: 0060; A: 0163; T: 0265; B: 0363;
!!!key: d:dor
**kern	**text	**text	**kern	**text	**text	**kern	**text	**text	**kern	**text	**text
*part4	*part4	*part4	*part3	*part3	*part3	*part2	*part2	*part2	*part1	*part1	*part1
*staff4	*staff4	*staff4	*staff3	*staff3	*staff3	*staff2	*staff2	*staff2	*staff1	*staff1	*staff1
*I"BASVS	*	*	*I"TENOR	*	*	*I"ALTVS	*	*	*I"DISCANTVS	*	*
*I'B	*	*	*I'T	*	*	*I'A	*	*	*I'S	*	*
*ICvox	*	*	*ICvox	*	*	*ICvox	*	*	*ICvox	*	*
*Ibass	*	*	*Itenor	*	*	*Ialto	*	*	*Isoprn	*	*
*clefF4	*	*	*clefC4	*	*	*clefC3	*	*	*clefC1	*	*
*d:dor	*	*	*d:dor	*	*	*d:dor	*	*	*d:dor	*	*
*k[]	*	*	*k[]	*	*	*k[]	*	*	*k[]	*	*
*M2/1	*	*	*M2/1	*	*	*M2/1	*	*	*M2/1	*	*
*met(c|)	*	*	*met(c|)	*	*	*met(c|)	*	*	*met(c|)	*	*
=1	=1	=1	=1	=1	=1	=1	=1	=1	=1	=1	=1
*2\right	*	*	*2\right	*	*	*2\right	*	*	*2\right	*	*
!LO:TX:t=P:problem=kreska pseudotaktowa	!	!	!	!	!	!	!	!	!	!	!
1C	Ro-	E-	0r	.	.	0r	.	.	0r	.	.
2D/	-ra-	-gre-	.	.	.	.	.	.	.	.	.
1F	.	.	.	.	.	.	.	.	.	.	.
=2	=2	=2	=2	=2	=2	=2	=2	=2	=2	=2	=2
!	!	!	!LO:TX:t=P:problem=kreska pseudotaktowa	!	!	!	!	!	!	!	!
.	.	.	1r	.	.	0r	.	.	0r	.	.
4E/	.	-di-	.	.	.	.	.	.	.	.	.
!LO:TX:t=P:problem=kreska pseudotaktowa	!	!	!	!	!	!	!	!	!	!	!
4D/	.	.	.	.	.	.	.	.	.	.	.
1E	-te	.	1C	Ro-	E-	.	.	.	.	.	.
=3	=3	=3	=3	=3	=3	=3	=3	=3	=3	=3	=3
!	!	!	!	!	!	!LO:TX:t=P:problem=kreska pseudotaktowa	!	!	!LO:TX:t=P:problem=kreska pseudotaktowa	!	!
2D/	ro-	.	2D/	-ra-	-gre-	1r	.	.	0r	.	.
1D	-ra-	.	1F	.	-di-	.	.	.	.	.	.
.	.	.	.	.	.	2.F/	Ro-	E-	.	.	.
4C/	.	-mi-	4E/	.	.	.	.	.	.	.	.
!LO:TX:t=P:problem=kreska pseudotaktowa	!	!	!LO:TX:t=P:problem=kreska pseudotaktowa	!	!	!LO:TX:t=P:problem=kreska pseudotaktowa	!	!	!	!	!
4BB/	.	.	4D/	.	.	4G/	.	-gre-	.	.	.
=4	=4	=4	=4	=4	=4	=4	=4	=4	=4	=4	=4
!LO:TX:t=P:problem=kreska pseudotaktowa	!	!	!	!	!	!	!	!	!	!	!
1AA	-te	-ni	1E	-te	-mi-	[2A/	-ra-	-di-	1c	Ro-	E-
.	.	.	.	.	.	2A/]	.	.	.	.	.
1r	.	.	2.D/	ro-	.	2.A/	-te	-mi-	2d/	.	-gre-
.	.	.	.	.	.	.	.	.	2.d/	-ra-	-di-
!	!	!	!LO:TX:t=P:problem=kreska pseudotaktowa	!	!	!LO:TX:t=P:problem=kreska pseudotaktowa	!	!	!	!	!
.	.	.	4E/	.	.	4G/	.	.	.	.	.
=5	=5	=5	=5	=5	=5	=5	=5	=5	=5	=5	=5
1D	ro-	e-	4F/	.	.	2F/	.	.	.	.	.
.	.	.	4G/	.	.	.	.	.	4e/	.	.
.	.	.	4A/	.	.	2f\	ro-	.	4f/	.	.
!	!	!	!	!	!	!	!	!	!LO:TX:t=P:problem=kreska pseudotaktowa	!	!
.	.	.	4B/	.	.	.	.	.	4g/	.	.
2AA/	-ra-	-gre-	2c/	-ra-	.	2e\	-ra-	.	2.a/	.	.
!LO:TX:t=P:problem=kreska pseudotaktowa	!	!	!	!	!	!LO:TX:t=P:problem=kreska pseudotaktowa	!	!	!	!	!
2D/	.	-di-	2A/	-te	.	2f\	.	.	.	.	.
.	.	.	.	.	.	.	.	.	4b/	.	.
=6	=6	=6	=6	=6	=6	=6	=6	=6	=6	=6	=6
!	!	!	!LO:TX:t=P:problem=kreska pseudotaktowa	!	!	!	!	!	!	!	!
2AA/	.	-mi-	1A	ce-	-ni	2e/	-te	-ni	2cc\	.	.
2AA/	-te	-ni	.	.	.	1e	ce-	et	2a/	.	-mi-
!	!	!	!	!	!	!	!	!	!LO:TX:t=P:problem=kreska pseudotaktowa	!	!
2.A\	cae-	et	2.c/	.	et	.	.	.	1a	-te	-ni
!	!	!	!	!	!	!LO:TX:t=P:problem=kreska pseudotaktowa	!	!	!	!	!
.	.	.	.	.	.	2e/	-li	vi-	.	.	.
!LO:TX:t=P:problem=kreska pseudotaktowa	!	!	!	!	!	!	!	!	!	!	!
4G\	.	.	4B/	.	.	.	.	.	.	.	.
=7	=7	=7	=7	=7	=7	=7	=7	=7	=7	=7	=7
2F\	.	vi-	2c/	.	.	2f/	ro-	-de-	2r	.	.
!	!	!	!LO:TX:t=P:problem=kreska pseudotaktowa	!	!	!	!	!	!	!	!
2D/	.	.	2d/	.	vi-	2f/	-ra-	-te	1a	cae-	et
*custos:AA	*	*	*	*	*	*	*	*	*	*	*
!LO:TX:t=P:problem=kreska pseudotaktowa	!	!	!	!	!	!	!	!	!	!	!
1E	.	-de-	1B	li	-de-	2e/	.	.	.	.	.
!	!	!	!	!	!	!LO:TX:t=P:problem=kreska pseudotaktowa	!	!	!LO:TX:t=P:problem=kreska pseudotaktowa	!	!
.	.	.	.	.	.	2e/	-te	fi-	2g/	.	vi-
!LO:LB:g=original	!	!	!	!	!	!	!	!	!	!	!
=8	=8	=8	=8	=8	=8	=8	=8	=8	=8	=8	=8
2AA/	-li	-te	2.A/	ro-	-te	2e/	cae	-li-	1a	-li	-de-
1AA	ro-	fi-	.	.	.	2.e/	.	-e	.	.	.
!	!	!	!LO:TX:t=P:problem=kreska pseudotaktowa	!	!	!	!	!	!	!	!
.	.	.	4B/	.	.	.	.	.	.	.	.
.	.	.	4c/	.	fi-	.	.	.	2a/	ro-	-te
.	.	.	4d/	.	.	4d/	.	.	.	.	.
!LO:TX:t=P:problem=kreska pseudotaktowa	!	!	!LO:TX:t=P:problem=kreska pseudotaktowa	!	!	!LO:TX:t=P:problem=kreska pseudotaktowa	!	!	!LO:TX:t=P:problem=kreska pseudotaktowa	!	!
2AA/	-ra-	-li-	2e\	.	-li-	2c/	cae-	si-	2cc/	-ra-	fi-
=9	=9	=9	=9	=9	=9	=9	=9	=9	=9	=9	=9
2BB/	.	-e	2d\	.	-e	2d/	.	-on	2b/	.	-li-
!	!	!	!	!	!	!LO:TX:t=P:problem=kreska pseudotaktowa	!	!	!	!	!
2C/	.	Sy-	2c\	.	sy-	2e/	-li	.	1a	.	-e
*	*	*	*	*	*	*custos:e	*	*	*	*	*
!	!	!	!LO:TX:t=P:problem=kreska pseudotaktowa	!	!	!	!	!	!	!	!
2D/	.	-on	1B	.	-on	2r	.	.	.	.	.
!LO:TX:t=P:problem=kreska pseudotaktowa	!	!	!	!	!	!LO:TX:t=P:problem=kreska pseudotaktowa	!	!	!	!	!
2E\	.	.	.	.	.	2e\	cae-	re-	2g/	.	si-
!	!	!	!	!	!	!	!	!	!LO:LB:g=original	!	!
=10	=10	=10	=10	=10	=10	=10	=10	=10	=10	=10	=10
!	!	!	!	!	!	!	!	!	!LO:TX:t=P:problem=kreska pseudotaktowa	!	!
2AA/	-te	.	2A/	-te	.	2.e\	.	-gi-	1a	-te	-jon
!	!	!	!LO:TX:t=P:problem=kreska pseudotaktowa	!	!	!	!	!	!	!	!
2A\	cae-	re-	2c\	cae-	re-	.	.	.	.	.	.
.	.	.	.	.	.	4f\	-li	.	.	.	.
!	!	!	!	!	!	!LO:TX:t=P:problem=kreska pseudotaktowa	!	!	!	!	!
2G\	.	-gi-	2.d\	.	-gi-	1g	.	-na	2r	.	.
4F\	.	-na	.	.	.	.	.	.	2g/	ce-	re-
!LO:TX:t=P:problem=kreska pseudotaktowa	!	!	!LO:TX:t=P:problem=kreska pseudotaktowa	!	!	!	!	!	!	!	!
4E\	.	.	4e\	.	.	.	.	.	.	.	.
=11	=11	=11	=11	=11	=11	=11	=11	=11	=11	=11	=11
2D/	.	ves-	2f\	.	.	2r	.	.	2a/	-li	-gi-
!LO:TX:t=P:problem=kreska pseudotaktowa	!	!	!	!	!	!	!	!	!	!	!
2C/	-li	.	2e\	.	.	2g\	de	ves-	1cc	de	-n(am)
*lig	*	*	*	*	*	*	*	*	*	*	*
!LO:N:vis=0	!	!	!LO:TX:t=P:problem=kreska pseudotaktowa	!	!	!	!	!	!	!	!
1G	de-	-tram	1d	.	.	2.g\	su-	-tram	.	.	.
*	*	*	*	*	*	*	*	*	*custos:cc	*	*
!	!	!	!	!	!	!	!	!	!LO:TX:t=P:problem=kreska pseudotaktowa	!	!
.	.	.	.	.	.	.	.	.	2b/	su-	ves-
!	!	!	!	!	!	!LO:TX:t=P:problem=kreska pseudotaktowa	!	!	!	!	!
.	.	.	.	.	.	4f\	.	.	.	.	.
!	!	!	!	!	!	!	!	!	!LO:LB:g=original	!	!
=12	=12	=12	=12	=12	=12	=12	=12	=12	=12	=12	=12
*col	*	*	*	*	*	*	*	*	*	*	*
!LO:N:vis=0.	!	!	!	!	!	!LO:TX:t=P:problem=kreska pseudotaktowa	!	!	!LO:TX:t=P:problem=kreska pseudotaktowa	!	!
2.A\	.	.	2c\	-li	-na	1e	-per	.	1cc	-per	-tram
.	.	.	2e\	de-	ves-	.	.	.	.	.	.
!	!	!	!LO:TX:t=P:problem=kreska pseudotaktowa	!	!	!	!	!	!	!	!
*Xlig	*	*	*	*	*	*	*	*	*	*	*
!LO:TX:t=P:problem=kreska pseudotaktowa	!	!	!	!	!	!	!	!	!	!	!
4G\	.	.	.	.	.	.	.	.	.	.	.
*Xcol	*	*	*	*	*	*	*	*	*	*	*
2F\	-su-	.	2d\	.	.	1r	.	.	2r	.	.
!	!	!	!	!	!	!	!	!	!LO:TX:t=P:problem=kreska pseudotaktowa	!	!
2E\	-per	.	1c	.	-tram	.	.	.	2g/	et	qu(am)
=13	=13	=13	=13	=13	=13	=13	=13	=13	=13	=13	=13
1D	.	.	.	.	.	2r	.	.	2a/	nu-	lau-
!	!	!	!LO:TX:t=P:problem=kreska pseudotaktowa	!	!	!LO:TX:t=P:problem=kreska pseudotaktowa	!	!	!	!	!
.	.	.	2B\	-su-	.	2d/	et	quam	4g/	.	.
!	!	!	!	!	!	!	!	!	!LO:TX:t=P:problem=kreska pseudotaktowa	!	!
.	.	.	.	.	.	.	.	.	4f/	.	.
2C/	et	.	1c	-per	.	2.g\	nu-	lau-	2.e/	.	-dant
!LO:TX:t=P::problem=kreska pseudotaktowa&colon;między nutą a kropką	!	!	!	!	!	!	!	!	!	!	!
2.C/	nu-	.	.	.	.	.	.	.	.	.	.
.	.	.	.	.	.	4f\	.	.	4f/	.	.
=14	=14	=14	=14	=14	=14	=14	=14	=14	=14	=14	=14
!	!	!	!LO:TX:t=P:problem=kreska pseudotaktowa	!	!	!	!	!	!LO:TX:t=P:problem=kreska pseudotaktowa	!	!
.	.	.	1r	.	.	4e\	.	.	1g	-bes	.
4D/	.	quam	.	.	.	4d/	.	.	.	.	.
2E\	-bes	.	.	.	.	4c/	.	.	.	.	.
!	!	!	!	!	!	!LO:TX:t=P:problem=kreska pseudotaktowa	!	!	!	!	!
.	.	.	.	.	.	4B/	.	.	.	.	.
!	!	!	!LO:TX:t=P:problem=kreska pseudotaktowa	!	!	!	!	!	!	!	!
2.F\	nu-	lau-	1A	et	Qu(am)	2.A/	.	.	2c/	plu-	.
.	.	.	.	.	.	.	.	.	1cc	-ant	a-
!LO:TX:t=P:problem=kreska pseudotaktowa	!	!	!	!	!	!	!	!	!	!	!
4G\	.	.	.	.	.	4B/	.	.	.	.	.
=15	=15	=15	=15	=15	=15	=15	=15	=15	=15	=15	=15
*	*	*	*lig	*	*	*	*	*	*	*	*
!	!	!	!LO:N:vis=0	!	!	!	!	!	!	!	!
2A\	.	-dant	1F	nu-	lau-	2c/	-bes	.	.	plu-	.
4G\	.	.	.	.	.	1d	olu-	.	4b\	.	-stra
!	!	!	!	!	!	!	!	!	!LO:TX:t=P:problem=kreska pseudotaktowa	!	!
4F\	.	.	.	.	.	.	.	.	4a\	.	.
*custos:D	*	*	*	*	*	*	*	*	*	*	*
!LO:TX:t=P:problem=kreska pseudotaktowa	!	!	!	!	!	!	!	!	!	!	!
!	!	!	!LO:N:vis=0	!	!	!	!	!	!	!	!
1E	-bes	.	1G	.	.	.	.	.	1g	.	.
.	.	.	.	.	.	2c/	-ant	-dant	.	.	.
!	!	!	!	!	!	!LO:TX:t=P:problem=kreska pseudotaktowa	!	!	!	!	!
*	*	*	*Xlig	*	*	*	*	*	*	*	*
!LO:LB:g=original	!	!	!	!	!	!	!	!	!	!	!
=16	=16	=16	=16	=16	=16	=16	=16	=16	=16	=16	=16
2D/	plu-	a-	1A	.	-dant	2d/	de	.	2f/	-ant	.
1F	-ant	-stra	.	.	.	2c/	nu-	a-	1a	plu-	ma-
!	!	!	!LO:TX:t=P:problem=kreska pseudotaktowa	!	!	!	!	!	!	!	!
.	.	.	1A	-bes	a-	2.c/	-bes	-stra	.	.	.
4E/	.	.	.	.	.	.	.	.	4g/	.	.
!LO:TX:t=P:problem=kreska pseudotaktowa	!	!	!	!	!	!LO:TX:t=P:problem=kreska pseudotaktowa	!	!	!LO:TX:t=P:problem=kreska pseudotaktowa	!	!
4D/	.	.	.	.	.	4d/	plu-	.	4f/	.	.
=17	=17	=17	=17	=17	=17	=17	=17	=17	=17	=17	=17
2C/	Ju-	.	1c	Plu-	-stra	2e\	.	.	1e	.	.
!LO:TX:t=P:problem=kreska pseudotaktowa	!	!	!	!	!	!	!	!	!	!	!
2C/	-stum	.	.	.	.	4d/	.	.	.	.	.
!	!	!	!	!	!	!LO:TX:t=P:problem=kreska pseudotaktowa	!	!	!	!	!
.	.	.	.	.	.	4c/	.	.	.	.	.
2r	.	.	2G/	-ant	.	2B/	.	ma-	2d/	-ant	.
2.F\	plu-	Ma-	1A	Plu-	.	1A	.	.	1c	Ju-	-tu-
=18	=18	=18	=18	=18	=18	=18	=18	=18	=18	=18	=18
.	.	.	.	.	.	.	.	.	.	.	.
4E\	.	-tu-	.	.	.	.	.	.	.	.	.
*	*	*	*	*	*	*custos:c	*	*	*	*	*
!	!	!	!	!	!	!LO:TX:t=P:problem=kreska pseudotaktowa	!	!	!	!	!
!LO:TX:t=P:problem=kreska pseudotaktowa	!	!	!	!	!	!	!	!	!LO:TX:t=P:problem=kreska pseudotaktowa	!	!
2D/	-ant	-ti-	4G/	.	ma-	2B/	-ant	-tu-	2d/	.	.
!	!	!	!LO:TX:t=P:problem=kreska pseudotaktowa	!	!	!	!	!	!	!	!
.	.	.	4F/	.	.	.	.	.	.	.	.
!	!	!	!	!	!	!	!	!	!LO:LB:g=original	!	!
2C/	Ju-	.	2G/	.	-tu-	4c/	Ju-	.	2e/	.	.
.	.	.	.	.	.	4B/	.	.	.	.	.
2D/	.	-na	2F/	-ant	-ti-	4A/	.	.	1d	.	-ti-
.	.	.	.	.	.	4G/	.	.	.	.	.
=19	=19	=19	=19	=19	=19	=19	=19	=19	=19	=19	=19
*	*	*	*custos:D	*	*	*	*	*	*	*	*
!	!	!	!LO:TX:t=P:problem=kreska pseudotaktowa	!	!	!	!	!	!	!	!
!LO:TX:t=P:problem=kreska pseudotaktowa	!	!	!	!	!	!	!	!	!	!	!
1AA	-st(um)	.	1E	Ju-	.	1A	.	-ti-	.	.	.
.	.	.	.	.	.	.	.	.	2c/	.	-na
!	!	!	!	!	!	!LO:TX:t=P:problem=kreska pseudotaktowa	!	!	!LO:TX:t=P:problem=kreska pseudotaktowa	!	!
!	!	!	!	!	!	!LO:LB:g=original	!	!	!	!	!
2r	.	.	1D	-st(um)	-na	1A	-st(um)	-na	1d	-st(um)	.
2D/	a-	Cu-	.	.	.	.	.	.	.	.	.
=20	=20	=20	=20	=20	=20	=20	=20	=20	=20	=20	=20
!	!	!	!	!	!	!LO:TX:a:t=7.	!	!	!	!	!
2.F\	-pe-	-ius	2r	.	.	0r	.	.	0r	.	.
!	!	!	!LO:TX:t=P:problem=kreska pseudotaktowa	!	!	!	!	!	!	!	!
.	.	.	2D/	a-	Cu-	.	.	.	.	.	.
!LO:TX:t=P:problem=kreska pseudotaktowa	!	!	!	!	!	!	!	!	!	!	!
4G\	.	.	.	.	.	.	.	.	.	.	.
2.A\	.	.	2.F/	-pe-	-ius	.	.	.	.	.	.
4B\	-ri-	.	4G/	.	.	.	.	.	.	.	.
=21	=21	=21	=21	=21	=21	=21	=21	=21	=21	=21	=21
2.c\	-a-	.	2A/	.	.	0r	.	.	0r	.	.
!	!	!	!LO:TX:t=P:problem=kreska pseudotaktowa	!	!	!	!	!	!	!	!
.	.	.	2G/	-ri-	.	.	.	.	.	.	.
!LO:TX:t=P:problem=kreska pseudotaktowa	!	!	!	!	!	!	!	!	!	!	!
4B\	.	.	.	.	.	.	.	.	.	.	.
2A\	.	.	2c\	-a-	.	.	.	.	.	.	.
1G	.	.	2B\	-t(ur)	.	.	.	.	.	.	.
=22	=22	=22	=22	=22	=22	=22	=22	=22	=22	=22	=22
!	!	!	!LO:TX:t=P:problem=kreska pseudotaktowa	!	!	!	!	!	!LO:TX:t=P:problem=kreska pseudotaktowa	!	!
.	.	.	1A	a-	.	0r	.	.	1r	.	.
!LO:TX:t=P:problem=kreska pseudotaktowa	!	!	!	!	!	!	!	!	!	!	!
2F\	-t(ur)	.	.	.	.	.	.	.	.	.	.
*	*	*ij	*	*	*	*	*	*	*	*	*
2.G\	a-	Cu-	4G/	-per-	.	.	.	.	2r	.	.
.	.	.	4A/	.	.	.	.	.	.	.	.
.	.	.	4B/	.	.	.	.	.	2d/	a-	Cu-
4F\	.	.	4c/	.	.	.	.	.	.	.	.
=23	=23	=23	=23	=23	=23	=23	=23	=23	=23	=23	=23
!	!	!	!	!	!	!LO:TX:t=P:problem=kreska pseudotaktowa	!	!	!	!	!
2.D/	-pe-	-ius	1d	.	.	1r	.	.	2.f/	-pe-	-ius
!LO:TX:t=P:problem=kreska pseudotaktowa	!	!	!	!	!	!	!	!	!LO:TX:t=P:problem=kreska pseudotaktowa	!	!
*	*	*Xij	*	*	*	*	*	*	*	*	*
4E\	-ri-	.	.	.	.	.	.	.	4g/	-ri-	.
2F\	-a-	.	2c\	-ri-	.	2r	.	.	2a/	-a-	.
*custos:D	*	*	*	*	*	*	*	*	*	*	*
!LO:TX:t=P:problem=kreska pseudotaktowa	!	!	!	!	!	!	!	!	!	!	!
!	!	!	!LO:TX:t=P:problem=kreska pseudotaktowa	!	!	!	!	!	!	!	!
2G\	.	.	2B/	-a-	.	2d\	a-	Cu-	1g	.	.
!LO:LB:g=original	!	!	!	!	!	!	!	!	!	!	!
=24	=24	=24	=24	=24	=24	=24	=24	=24	=24	=24	=24
1D	.	.	1A	.	.	2.d\	-pe-	-ius	.	.	.
*	*	*	*	*	*	*	*	*	*custos:g	*	*
!	!	!	!	!	!	!	!	!	!LO:TX:t=P:problem=kreska pseudotaktowa	!	!
.	.	.	.	.	.	.	.	.	2f/	-t(ur)	.
!	!	!	!	!	!	!LO:TX:t=P:problem=kreska pseudotaktowa	!	!	!	!	!
.	.	.	.	.	.	4c/	-ri-	.	.	.	.
!	!	!	!	!	!	!	!	!	!LO:LB:g=original	!	!
2GG/	-t(ur)	.	2G/	-t(ur)	.	2B/	-a-	pul-	1g	a-	.
!LO:TX:t=P:problem=kreska pseudotaktowa	!	!	!LO:TX:t=P:problem=kreska pseudotaktowa	!	!	!	!	!	!	!	!
2C/	ter-	.	2G/	a-	pul-	2e\	-tur	-chri-	.	.	.
=25	=25	=25	=25	=25	=25	=25	=25	=25	=25	=25	=25
!	!	!	!	!	!	!	!	!	!LO:TX:t=P:problem=kreska pseudotaktowa	!	!
2GG/	ra	.	2.G/	-pe-	-chri-	2.d\	a	-tu-	1g	-pe-	pul-
1G	a-	pul-	.	.	.	.	.	.	.	.	.
!	!	!	!	!	!	!LO:TX:t=P:problem=kreska pseudotaktowa	!	!	!	!	!
.	.	.	4A/	.	.	4c/	pe-	.	.	.	.
.	.	.	2B/	.	-tu-	2B/	-ri-	-di-	2g/	-ri-	-chri-
!LO:TX:t=P:problem=kreska pseudotaktowa	!	!	!LO:TX:t=P:problem=kreska pseudotaktowa	!	!	!	!	!	!	!	!
2F\	-pe-	-chri-	2c\	-ri-	.	2A/	-a-	.	2.a/	-a-	-tu-
=26	=26	=26	=26	=26	=26	=26	=26	=26	=26	=26	=26
2G\	-ri-	-tu-	2B/	-a-	.	2B/	-t(ur)	.	.	-tur	.
.	.	.	.	.	.	.	.	.	4g/	.	.
2E\	-a-	-di-	2G/	-t(ur)	.	2c/	ter-	.	1g	ter-	.
!LO:TX:t=P:problem=kreska pseudotaktowa	!	!	!LO:TX:t=P:problem=kreska pseudotaktowa	!	!	!LO:TX:t=P:problem=kreska pseudotaktowa	!	!	!	!	!
1D	-t(ur)	-ne	1A	ter-	-di-	1d	-ra	-ne	.	.	.
!	!	!	!	!	!	!	!	!	!LO:TX:t=P:problem=kreska pseudotaktowa	!	!
.	.	.	.	.	.	.	.	.	2f/	.	-di-
=27	=27	=27	=27	=27	=27	=27	=27	=27	=27	=27	=27
!	!	!	!	!	!	!	!	!	!LO:TX:t=P:problem=kreska pseudotaktowa	!	!
2E\	ter-	.	2G/	-ra	-ne	2r	.	.	1g	-ra	-ne
2.C/	.	sol	2c\	ter-	sol	2e\	?	sol	.	.	.
.	.	.	2c\	-ra	et	2e\	.	et	2r	.	.
4BB/	.	.	.	.	.	.	.	.	.	.	.
!LO:TX:t=P::problem=kreska pseudotaktowa&colon;między nutą a kropką	!	!	!	!	!	!LO:TX:t=P:problem=kreska pseudotaktowa	!	!	!	!	!
2.AA/	.	et	2.c\	ter-	lu-	2e\	.	lu-	1cc	ter-	sol
=28	=28	=28	=28	=28	=28	=28	=28	=28	=28	=28	=28
.	.	.	.	.	.	1e	.	-na	.	.	.
*	*	*	*custos:A	*	*	*	*	*	*	*	*
4GG/	.	.	4B/	.	.	.	.	.	.	.	.
!	!	!	!LO:LB:g=original	!	!	!	!	!	!LO:TX:t=P:problem=kreska pseudotaktowa	!	!
2AA/	.	lu-	1A	.	.	.	.	.	2cc\	.	et
!LO:TX:t=P:problem=kreska pseudotaktowa	!	!	!	!	!	!	!	!	!	!	!
1BB	.	-na	.	.	.	1r	.	.	1dd	.	lu-
!	!	!	!LO:TX:t=P:problem=kreska pseudotaktowa	!	!	!	!	!	!	!	!
.	.	.	2G/	.	.	.	.	.	.	.	.
=29	=29	=29	=29	=29	=29	=29	=29	=29	=29	=29	=29
!	!	!	!	!	!	!	!	!	!LO:TX:t=P:problem=kreska pseudotaktowa	!	!
2AA/	-ra	.	2A/	-ra	-na	2.e\	et	mi-	1cc	-ra	-na
!LO:TX:t=P:problem=kreska pseudotaktowa	!	!	!	!	!	!	!	!	!	!	!
2A\	et	mi-	2e\	et	mi-	.	.	.	.	.	.
!	!	!	!	!	!	!LO:TX:t=P:problem=kreska pseudotaktowa	!	!	!	!	!
.	.	.	.	.	.	4f\	.	.	.	.	.
2E\	.	-ran-	2.e\	ger-	-ran-	2g\	.	.	2g/	et	.
*	*	*	*	*	*	*custos:e	*	*	*	*	*
!	!	!	!	!	!	!LO:TX:t=P:problem=kreska pseudotaktowa	!	!	!	!	!
1A	ger-	-tur	.	.	.	2a\	.	-ram:	2.cc\	ger-	mi-
!	!	!	!LO:TX:t=P:problem=kreska pseudotaktowa	!	!	!	!	!	!	!	!
.	.	.	4d\	.	.	.	.	.	.	.	.
!	!	!	!	!	!	!LO:LB:g=original	!	!	!	!	!
=30	=30	=30	=30	=30	=30	=30	=30	=30	=30	=30	=30
.	.	.	2c\	.	-tur	2e\	ger-	.	.	.	.
.	.	.	.	.	.	.	.	.	4b\	.	.
!LO:TX:t=P:problem=kreska pseudotaktowa	!	!	!	!	!	!	!	!	!	!	!
2D\	.	.	2d\	.	.	2f\	.	.	1a	.	-ran-
1E	-mi-	.	1B	-mi-	.	1e	-mi-	.	.	.	.
.	.	.	.	.	.	.	.	.	2g/	-mi-	.
=31	=31	=31	=31	=31	=31	=31	=31	=31	=31	=31	=31
*M3/1	*	*	*M3/1	*	*	*M3/1	*	*	*M3/1	*	*
*met(3)	*	*	*met(3)	*	*	*met(3)	*	*	*met(3)	*	*
0AA	-net	.	0A	-net	.	0e	-net	et	0a	-net	-tur
!LO:TX:t=P:problem=kreska pseudotaktowa	!	!	!LO:TX:t=P:problem=kreska pseudotaktowa	!	!	!LO:TX:t=P:problem=kreska pseudotaktowa	!	!	!LO:TX:t=P:problem=kreska pseudotaktowa	!	!
1D	et	et	1A	et	et	1d	et	iu-	1f	et	et
=32	=32	=32	=32	=32	=32	=32	=32	=32	=32	=32	=32
1.C	ger-	iu-	1.c	ger-	iu-	1.e	ger-	-bi-	1.g	ger-	iu-
2C/	-mi-	-bi-	2c\	-mi-	-bi-	2e\	-mi-	-lat	2g/	-i-	-bi-
!LO:TX:t=P:problem=kreska pseudotaktowa	!	!	!LO:TX:t=P:problem=kreska pseudotaktowa	!	!	!LO:TX:t=P:problem=kreska pseudotaktowa	!	!	!LO:TX:t=P:problem=kreska pseudotaktowa	!	!
1C	-net	-lat	1c	-net	-lant	1e	-net	o(m)-	1g	-net	-lant
=33	=33	=33	=33	=33	=33	=33	=33	=33	=33	=33	=33
0F	Sal-	.	0c	Sal-	om-	0f	Sal-	-nes	0a	Sal-	o(m)-
*custos:D	*	*	*	*	*	*	*	*	*	*	*
!LO:TX:t=P:problem=kreska pseudotaktowa	!	!	!	!	!	!	!	!	!	!	!
!	!	!	!LO:TX:t=P:problem=kreska pseudotaktowa	!	!	!LO:TX:t=P:problem=kreska pseudotaktowa	!	!	!LO:TX:t=P:problem=kreska pseudotaktowa	!	!
1C	-va-	.	1c	-va-	-nes	1e	-va-	fi-	1g	-va-	-nes
!LO:LB:g=original	!	!	!	!	!	!	!	!	!	!	!
=34	=34	=34	=34	=34	=34	=34	=34	=34	=34	=34	=34
1D	-to-	fi-	0A	-to-	fi-	1d	.	-lij	1f	-to-	fi-
!	!	!	!	!	!	!LO:TX:t=P:problem=kreska pseudotaktowa	!	!	!LO:TX:t=P:problem=kreska pseudotaktowa	!	!
1AA	-re	-lij	.	.	.	0c	.	de-	0e	-r(em)	-lij
*lig	*	*	*	*	*	*	*	*	*	*	*
!LO:N:vis=0	!	!	!LO:TX:t=P:problem=kreska pseudotaktowa	!	!	!	!	!	!	!	!
1C	Sal-	de-	1G	.	-li-	.	.	.	.	.	.
=35	=35	=35	=35	=35	=35	=35	=35	=35	=35	=35	=35
!LO:N:vis=0	!	!	!	!	!	!	!	!	!	!	!
1D	-va-	.	1F	.	-us	1B	.	-i	0d	Sal-	de-
*Xlig	*	*	*	*	*	*	*	*	*	*	*
0AA	-to-	-i	0E	.	de-	0A	.	.	.	.	.
!	!	!	!	!	!	!	!	!	!LO:TX:t=P:problem=kreska pseudotaktowa	!	!
.	.	.	.	.	.	.	.	.	1c	-va-	-i
=36	=36	=36	=36	=36	=36	=36	=36	=36	=36	=36	=36
*	*	*	*custos:F	*	*	*	*	*	*custos:g	*	*
!	!	!	!LO:TX:t=P:problem=kreska pseudotaktowa	!	!	!	!	!	!	!	!
!LO:TX:t=P:problem=kreska pseudotaktowa	!	!	!	!	!	!LO:TX:t=P:problem=kreska pseudotaktowa	!	!	!	!	!
!LO:N:vis=00	!	!	!	!	!	!	!	!	!	!	!
!	!	!	!LO:N:vis=00	!	!	!	!	!	!	!	!
!	!	!	!	!	!	!LO:N:vis=00	!	!	!	!	!
0.D	-re	.	0.D	-re	-i	0.A	-re	.	0.d	-tor(em)	.
!	!	!	!	!	!	!LO:LB:g=original	!	!	!	!LO:LB:g=original	!
=37	=37	=37	=37	=37	=37	=37	=37	=37	=37	=37	=37
*k[b-]	*	*	*k[b-]	*	*	*k[b-]	*	*	*k[b-]	*	*
*M2/1	*	*	*M2/1	*	*	*M2/1	*	*	*M2/1	*	*
*met(c|)	*	*	*met(c|)	*	*	*met(c|)	*	*	*met(c|)	*	*
!LO:TX:t=P:problem=kreska pseudotaktowa	!	!	!	!	!	!	!	!	!	!	!
0r	.	.	1F	.	O-	0r	.	.	0r	.	.
!	!	!	!LO:TX:t=P:problem=kreska pseudotaktowa	!	!	!	!	!	!	!	!
.	.	.	1G	.	-sten-	.	.	.	.	.	.
=38	=38	=38	=38	=38	=38	=38	=38	=38	=38	=38	=38
!	!	!	!	!	!	!LO:TX:t=P:problem=kreska pseudotaktowa	!	!	!LO:TX:t=P:problem=kreska pseudotaktowa	!	!
1F	O-	.	2A/	.	-dat	0r	.	.	0r	.	.
.	.	.	1F	.	.	.	.	.	.	.	.
1G	-sten-	.	.	.	.	.	.	.	.	.	.
!	!	!	!LO:TX:t=P:problem=kreska pseudotaktowa	!	!	!	!	!	!	!	!
.	.	.	2E/	.	.	.	.	.	.	.	.
=39	=39	=39	=39	=39	=39	=39	=39	=39	=39	=39	=39
2A\	-dat	.	2F/	.	.	2r	.	.	1f	Os-	.
!	!	!	!	!	!	!LO:TX:t=P:problem=kreska pseudotaktowa	!	!	!	!	!
1F	.	.	2A/	.	.	2c/	.	O-	.	.	.
!	!	!	!LO:TX:t=P:problem=kreska pseudotaktowa	!	!	!	!	!	!	!	!
*	*	*	*	*	*	*	*	*	*lig	*	*
!	!	!	!	!	!	!	!	!	!LO:N:vis=0	!	!
.	.	.	1G	.	.	2d\	.	-stend-	1g	-ten-	.
!LO:TX:t=P:problem=kreska pseudotaktowa	!	!	!	!	!	!	!	!	!	!	!
2E\	.	.	.	.	.	2e\	.	.	.	.	.
=40	=40	=40	=40	=40	=40	=40	=40	=40	=40	=40	=40
!	!	!	!	!	!	!	!	!	!LO:N:vis=0	!	!
1F	.	.	4F/	.	.	1c	.	-at	1a	.	.
.	.	.	4G/	.	.	.	.	.	.	.	.
.	.	.	4A/	.	.	.	.	.	.	.	.
.	.	.	4B-/	.	.	.	.	.	.	.	.
*	*	*	*	*	*	*	*	*	*Xlig	*	*
!LO:TX:t=P:problem=kreska pseudotaktowa	!	!	!LO:TX:t=P:problem=kreska pseudotaktowa	!	!	!LO:TX:t=P:problem=kreska pseudotaktowa	!	!	!LO:TX:t=P:problem=kreska pseudotaktowa	!	!
1F	.	.	1c	.	.	1f	.	.	1a	-dat	.
=41	=41	=41	=41	=41	=41	=41	=41	=41	=41	=41	=41
2r	.	.	2r	.	.	2r	.	.	2r	.	.
!	!	!	!	!	!	!	!	!	!LO:TX:t=P:problem=kreska pseudotaktowa	!	!
2F\	fa-	.	2f\	.	fa-	2c/	.	fa-	2a/	fa-	.
2F\	-ci-	.	2c\	.	-ci-	2f\	.	-ci-	2a/	-ci-	.
*	*	*	*	*	*	*custos:c	*	*	*	*	*
!	!	!	!	!	!	!LO:TX:t=P:problem=kreska pseudotaktowa	!	!	!	!	!
!LO:TX:t=P:problem=kreska pseudotaktowa	!	!	!LO:TX:t=P:problem=kreska pseudotaktowa	!	!	!	!	!	!	!	!
2F\	-em	.	2c\	.	-em	2f\	.	-em	2a,/	-(em)	.
!	!	!	!	!	!	!LO:LB:g=original	!	!	!	!	!
=42	=42	=42	=42	=42	=42	=42	=42	=42	=42	=42	=42
1F	su-	.	1f	.	su-	1c	.	su-	1a	tu-	.
!LO:TX:t=P:problem=kreska pseudotaktowa	!	!	!LO:TX:t=P:problem=kreska pseudotaktowa	!	!	!LO:TX:t=P:problem=kreska pseudotaktowa	!	!	!LO:TX:t=P:problem=kreska pseudotaktowa	!	!
1F	-(am)	.	1c	.	-am	1f	.	-am	1a	-am	.
=43	=43	=43	=43	=43	=43	=43	=43	=43	=43	=43	=43
2r	.	.	2r	.	.	2r	.	.	2r	.	.
2F\	so-	.	2f\	.	so-	2c/	.	so-	2a/	so-	.
2F\	-net	.	2c\	.	-net	2f\	.	-net	2a/	-net	.
!LO:TX:t=P:problem=kreska pseudotaktowa	!	!	!LO:TX:t=P:problem=kreska pseudotaktowa	!	!	!LO:TX:t=P:problem=kreska pseudotaktowa	!	!	!LO:TX:t=P:problem=kreska pseudotaktowa	!	!
2F\	vox-	.	2c\	.	vox-	2f\	.	vox-	2a/	vox-	.
=44	=44	=44	=44	=44	=44	=44	=44	=44	=44	=44	=44
1F	-i-	.	1f	.	-i-	1c	.	-i-	1a	-i-	.
!LO:TX:t=P:problem=kreska pseudotaktowa	!	!	!LO:TX:t=P:problem=kreska pseudotaktowa	!	!	!LO:TX:t=P:problem=kreska pseudotaktowa	!	!	!	!	!
1F	-m(us)	.	1c	.	-m(us)	1f	.	-m(us)	1a	-m(us)	.
=45	=45	=45	=45	=45	=45	=45	=45	=45	=45	=45	=45
2r	.	.	2r	.	.	2r	.	.	2r	.	.
*custos:F	*	*	*custos:c	*	*	*	*	*	*	*	*
!LO:TX:t=P:problem=kreska pseudotaktowa	!	!	!	!	!	!	!	!	!	!	!
!	!	!	!	!	!	!	!	!	!LO:TX:t=P:problem=kreska pseudotaktowa	!	!
2F\	in	.	2c/	.	in	2f\	.	au-	2a/	in	.
!	!	!	!	!	!	!LO:TX:t=P:problem=kreska pseudotaktowa	!	!	!	!	!
!LO:LB:g=original	!	!	!LO:LB:g=original	!	!	!	!	!	!	!	!
2.F\	au-	.	1.c	.	au-	1f	.	-ri-	2.a/	au-	.
4G\	.	.	.	.	.	.	.	.	4b-/	.	.
=46	=46	=46	=46	=46	=46	=46	=46	=46	=46	=46	=46
2A\	-ri-	.	.	.	.	2c/	.	.	2cc\	-ri-	.
!LO:TX:t=P:problem=kreska pseudotaktowa	!	!	!LO:TX:t=P:problem=kreska pseudotaktowa	!	!	!	!	!	!LO:TX:t=P:problem=kreska pseudotaktowa	!	!
2F\	-bus	.	2c/	.	-ri-	2f\	.	-bus	2a/	-bus	.
2F\	.	.	2c/	.	-bus	2f\	.	nos-	2a/	nos-	.
1BB-	nos-	.	1d	.	no-	1f	.	-tris	1b-	.	.
=47	=47	=47	=47	=47	=47	=47	=47	=47	=47	=47	=47
.	.	.	.	.	.	.	.	.	.	.	.
!LO:TX:t=P:problem=kreska pseudotaktowa	!	!	!LO:TX:t=P:problem=kreska pseudotaktowa	!	!	!LO:TX:t=P:problem=kreska pseudotaktowa	!	!	!	!	!
2C/	.	.	2c/	.	.	2e\	.	.	1a	.	.
2D/	.	.	1B-	.	.	2f\	.	.	.	.	.
!	!	!	!	!	!	!	!	!	!LO:TX:t=P:problem=kreska pseudotaktowa	!	!
2E/	.	.	.	.	.	4e\	.	.	2g/	.	.
.	.	.	.	.	.	4d\	.	.	.	.	.
=48	=48	=48	=48	=48	=48	=48	=48	=48	=48	=48	=48
!	!	!	!	!	!	!LO:TX:t=P:problem=kreska pseudotaktowa	!	!	!	!	!
2.F\	.	.	2A/	.	.	1c	.	.	1a	-tris	.
!	!	!	!LO:TX:t=P:problem=kreska pseudotaktowa	!	!	!	!	!	!	!	!
.	.	.	2c/	.	.	.	.	.	.	.	.
!LO:TX:t=P:problem=kreska pseudotaktowa	!	!	!	!	!	!	!	!	!	!	!
4E/	.	.	.	.	.	.	.	.	.	.	.
2D/	.	.	2B-/	.	.	1r	.	.	2r	.	.
!	!	!	!	!	!	!	!	!	!LO:TX:t=P:problem=kreska pseudotaktowa	!	!
2C/	.	.	1A	.	.	.	.	.	2a\	quia	.
=49	=49	=49	=49	=49	=49	=49	=49	=49	=49	=49	=49
!LO:TX:t=P:problem=kreska pseudotaktowa	!	!	!	!	!	!	!	!	!	!	!
1BB-	.	.	.	.	.	1r	.	.	2dd\	e-	.
*	*	*	*	*	*	*	*	*	*custos:cc	*	*
!	!	!	!	!	!	!	!	!	!LO:TX:t=P:problem=kreska pseudotaktowa	!	!
!	!	!	!LO:TX:t=P:problem=kreska pseudotaktowa	!	!	!	!	!	!	!	!
.	.	.	2G/	.	.	.	.	.	2dd\	-lo-	.
!	!	!	!	!	!	!	!	!	!LO:LB:g=original	!	!
2AA/	-tris	.	2A,/	.	-stris	1e	.	Qui-	2cc\	-qui-	.
!LO:TX:t=P:problem=kreska pseudotaktowa	!	!	!	!	!	!	!	!	!	!	!
2A\	Qui-	.	2A/	.	qu-	.	.	.	2.cc\	-um	.
=50	=50	=50	=50	=50	=50	=50	=50	=50	=50	=50	=50
2D/	-a	.	2d/	.	-ia	2f\	.	-a	.	.	.
.	.	.	.	.	.	.	.	.	4b-/	.	.
!	!	!	!LO:TX:t=P:problem=kreska pseudotaktowa	!	!	!LO:TX:t=P:problem=kreska pseudotaktowa	!	!	!LO:TX:t=P:problem=kreska pseudotaktowa	!	!
2D/	e-	.	2d/	.	e-	2f\	.	e-	2g/	.	.
!LO:TX:t=P:problem=kreska pseudotaktowa	!	!	!	!	!	!	!	!	!	!	!
1F	-lo-	.	2.c/	.	-lo-	2.f\	.	-lo-	2.a/	su-	.
.	.	.	4B-/	.	-qui-	4e\	.	-qui-	4g/	-am	.
=51	=51	=51	=51	=51	=51	=51	=51	=51	=51	=51	=51
2F\	-qui-	.	2A/	.	-(um)	2c/	.	-um	4f/	.	.
.	.	.	.	.	.	.	.	.	4g/	.	.
!	!	!	!LO:TX:t=P:problem=kreska pseudotaktowa	!	!	!LO:TX:t=P:problem=kreska pseudotaktowa	!	!	!	!	!
2F\	-(um)	.	2A/	.	su-	2c/	.	su-	4a/	.	.
!	!	!	!	!	!	!	!	!	!LO:TX:t=P:problem=kreska pseudotaktowa	!	!
.	.	.	.	.	.	.	.	.	4b-/	.	.
2F\	su-	.	2A/	.	-am	2c/	.	-am	2cc/	dol-	.
!LO:TX:t=P:problem=kreska pseudotaktowa	!	!	!	!	!	!	!	!	!	!	!
2G\	-(am)	.	2d/	.	dol-	2g\	.	.	2.b-/	.	.
=52	=52	=52	=52	=52	=52	=52	=52	=52	=52	=52	=52
2A\	dol-	.	2c/	.	.	2e\	.	dol-	.	.	.
.	.	.	.	.	.	.	.	.	4a/	.	.
!	!	!	!	!	!	!LO:TX:t=P:problem=kreska pseudotaktowa	!	!	!	!	!
2F\	.	.	2A/	.	.	2f\	.	.	1a	.	.
*	*	*	*	*	*	*custos:d	*	*	*	*	*
!LO:TX:t=P:problem=kreska pseudotaktowa	!	!	!	!	!	!	!	!	!	!	!
1G	-ce	.	1B-	.	.	1d	.	.	.	.	.
!	!	!	!	!	!	!LO:LB:g=original	!	!	!LO:TX:t=P:problem=kreska pseudotaktowa	!	!
.	.	.	.	.	.	.	.	.	2g/	-ce	.
=53	=53	=53	=53	=53	=53	=53	=53	=53	=53	=53	=53
*M3/1	*	*	*M3/1	*	*	*M3/1	*	*	*M3/1	*	*
*met(3)	*	*	*met(3)	*	*	*met(3)	*	*	*met(3)	*	*
0D	.	.	0A	.	-ce	0d	.	-ce	0a	.	.
!LO:TX:t=P:problem=kreska pseudotaktowa	!	!	!LO:TX:t=P:problem=kreska pseudotaktowa	!	!	!LO:TX:t=P:problem=kreska pseudotaktowa	!	!	!LO:TX:t=P:problem=kreska pseudotaktowa	!	!
1D	et	.	1A	.	et	1d	.	et	1f	et	.
=54	=54	=54	=54	=54	=54	=54	=54	=54	=54	=54	=54
0C	fa-	.	0c	.	Fa-	0e	.	fa-	0g	fa-	.
!LO:TX:t=P:problem=kreska pseudotaktowa	!	!	!LO:TX:t=P:problem=kreska pseudotaktowa	!	!	!LO:TX:t=P:problem=kreska pseudotaktowa	!	!	!	!	!
1C	-ci-	.	1c	.	-ci-	1e	.	-ci-	1g	-ci-	.
=55	=55	=55	=55	=55	=55	=55	=55	=55	=55	=55	=55
!	!	!	!	!	!	!	!	!	!LO:TX:t=P:problem=kreska pseudotaktowa	!	!
0F	-es	.	0c	.	-es	0f	.	-es	0.a	-es	.
*	*	*	*custos:A	*	*	*	*	*	*	*	*
!	!	!	!LO:TX:t=P:problem=kreska pseudotaktowa	!	!	!	!	!	!	!	!
!LO:TX:t=P:problem=kreska pseudotaktowa	!	!	!	!	!	!LO:TX:t=P:problem=kreska pseudotaktowa	!	!	!	!	!
1F	.	.	1c	.	de-	1f	.	de-	.	.	.
!	!	!	!LO:LB:g=original	!	!	!	!	!	!	!	!
=56	=56	=56	=56	=56	=56	=56	=56	=56	=56	=56	=56
0F	.	.	1.A	.	-co-	0c	.	-co-	1.cc	.	.
.	.	.	2B-/	.	-ra	.	.	.	2b-/	de	.
!LO:TX:t=P:problem=kreska pseudotaktowa	!	!	!LO:TX:t=P:problem=kreska pseudotaktowa	!	!	!LO:TX:t=P:problem=kreska pseudotaktowa	!	!	!LO:TX:t=P:problem=kreska pseudotaktowa	!	!
1F	de-	.	1c	.	.	1f	.	.	1a	.	.
=57	=57	=57	=57	=57	=57	=57	=57	=57	=57	=57	=57
!	!	!	!LO:TX:t=P:problem=kreska pseudotaktowa	!	!	!	!	!	!	!	!
1.C	-co-	.	0.c	.	.	1.e	.	-ra	0f	co-	.
2D/	-ra	.	.	.	.	2f\	.	.	.	.	.
!LO:TX:t=P:problem=kreska pseudotaktowa	!	!	!	!	!	!LO:TX:t=P:problem=kreska pseudotaktowa	!	!	!	!	!
*	*	*	*	*	*	*	*	*	*lig	*	*
!	!	!	!	!	!	!	!	!	!LO:N:vis=0	!	!
1E	.	.	.	.	.	1g	.	.	1g	-ra	.
=58	=58	=58	=58	=58	=58	=58	=58	=58	=58	=58	=58
!	!	!	!	!	!	!	!	!	!LO:N:vis=0.	!	!
1.F	.	.	1.A	.	Ni-	1.c	.	ni-	1.a	.	.
*	*	*	*	*	*	*	*	*	*Xlig	*	*
2E\	.	.	2B-/	.	.	2d/	.	.	2g/	.	.
2C/	ni-	.	2c\	.	.	2e\	.	.	2e/	.	.
*	*	*	*	*	*	*	*	*	*custos:g	*	*
!	!	!	!	!	!	!	!	!	!LO:TX:t=P:problem=kreska pseudotaktowa	!	!
!LO:TX:t=P:problem=kreska pseudotaktowa	!	!	!	!	!	!	!	!	!	!	!
2D/	.	.	4B-/	.	.	4d/	.	.	2f/	.	.
!	!	!	!LO:TX:t=P:problem=kreska pseudotaktowa	!	!	!LO:TX:t=P:problem=kreska pseudotaktowa	!	!	!	!	!
.	.	.	4A/	.	.	4c/	.	.	.	.	.
!	!	!	!	!	!	!	!	!	!LO:LB:g=original	!	!
=59	=59	=59	=59	=59	=59	=59	=59	=59	=59	=59	=59
!	!	!	!	!	!	!LO:TX:t=P:problem=kreska pseudotaktowa	!	!	!	!	!
1.E	.	.	0G	.	.	0.B-	.	.	1.g	.	.
2D/	.	.	.	.	.	.	.	.	2f/	ni-	.
!	!	!	!LO:TX:t=P:problem=kreska pseudotaktowa	!	!	!	!	!	!	!	!
2C/	.	.	1G	.	.	.	.	.	2e/	.	.
!LO:TX:t=P:problem=kreska pseudotaktowa	!	!	!	!	!	!	!	!	!LO:TX:t=P:problem=kreska pseudotaktowa	!	!
2BB-/	.	.	.	.	.	.	.	.	2d/	.	.
=60	=60	=60	=60	=60	=60	=60	=60	=60	=60	=60	=60
*	*	*	*	*	*	*lig	*	*	*	*	*
!	!	!	!	!	!	!LO:N:vis=0	!	!	!	!	!
1AA	.	.	1.A	.	.	1c	.	mis	1c	.	.
!LO:TX:t=P:problem=kreska pseudotaktowa	!	!	!	!	!	!	!	!	!	!	!
!	!	!	!	!	!	!LO:N:vis=0	!	!	!	!	!
0D	.	.	.	.	.	1e	.	.	1.f	.	.
.	.	.	2G/	.	.	.	.	.	.	.	.
*	*	*	*	*	*	*Xlig	*	*	*	*	*
!	!	!	!LO:TX:t=P:problem=kreska pseudotaktowa	!	!	!LO:TX:t=P:problem=kreska pseudotaktowa	!	!	!	!	!
.	.	.	1F	.	-mis	1A	.	.	.	.	.
!	!	!	!	!	!	!	!	!	!LO:TX:t=P:problem=kreska pseudotaktowa	!	!
.	.	.	.	.	.	.	.	.	2e/	-mis	.
=61	=61	=61	=61	=61	=61	=61	=61	=61	=61	=61	=61
1GG	.	.	1G	.	.	1B-	.	.	0d	.	.
!LO:TX:t=P:problem=kreska pseudotaktowa	!	!	!	!	!	!LO:TX:t=P:problem=kreska pseudotaktowa	!	!	!	!	!
0AA	-mis	.	0E	.	.	0A	.	.	.	.	.
.	.	.	.	.	.	.	.	.	1c	.	.
=62	=62	=62	=62	=62	=62	=62	=62	=62	=62	=62	=62
!LO:N:vis=00	!	!	!LO:N:vis=00	!	!	!LO:N:vis=00	!	!	!	!	!
0.D\	.	.	0.D	.	.	0.A\	.	.	0.d	.	.
==	==	==	==	==	==	==	==	==	==	==	==
*-	*-	*-	*-	*-	*-	*-	*-	*-	*-	*-	*-
!!!system-decoration: [(s1,s2,s3,s4)]
!!!AIN: 1 alto 1 bass 1 soprn 1 tenor
!!!ENC: Berenika Jozajtis
!!!END: 2022-01-18
!!!ENC: Natalia Wrzos
!!!END: 2022-01-22
